svg/emoji_u231a.svg

<svg width="128" height="128" xmlns="http://www.w3.org/2000/svg" width="512px" height="512px"><circle cx="28.87" cy="64.09" r="3" fill="#757575"/><path d="M110.73 72h-7.11c-2.46 0-4.45-1.99-4.45-4.45v-7.44c0-2.46 1.99-4.45 4.45-4.45h7.11c2.46 0 4.45 1.99 4.45 4.45v7.44c-.01 2.46-2 4.45-4.45 4.45z" fill="#616161"/><path d="M110.73 57.67c1.35 0 2.45 1.1 2.45 2.45v7.44c0 1.35-1.1 2.45-2.45 2.45h-7.11c-1.35 0-2.45-1.1-2.45-2.45v-7.44c0-1.35 1.1-2.45 2.45-2.45h7.11m0-2h-7.11c-2.46 0-4.45 1.99-4.45 4.45v7.44c0 2.46 1.99 4.45 4.45 4.45h7.11c2.46 0 4.45-1.99 4.45-4.45v-7.44c-.01-2.46-2-4.45-4.45-4.45z" fill="#424242" opacity=".2"/><linearGradient id="a" gradientUnits="userSpaceOnUse" x1="60.456" x2="60.456" y1="1.667" y2="21.678"><stop offset="0" stop-color="#a1887f"/><stop offset="1" stop-color="#795548"/></linearGradient><path fill="url(#a)" d="M78.43 3.97H42.32l-5.86 28.09h47.99z"/><linearGradient id="b" gradientUnits="userSpaceOnUse" x1="60.456" x2="60.456" y1="136.333" y2="108.982"><stop offset="0" stop-color="#a1887f"/><stop offset="1" stop-color="#795548"/></linearGradient><path fill="url(#b)" d="M42.48 123.82H78.6l5.85-28.09H36.46z"/><path d="M76.01 6.97l4.73 22.09H40.15l4.6-22.09h31.26m2.42-3H42.32l-5.85 28.09h47.98L78.43 3.97zM80.76 98.73l-4.6 22.09H44.91l-4.73-22.09h40.58m3.69-3zm0 0H36.46l6.02 28.09H78.6l5.85-28.09z" fill="#424242" opacity=".2"/><circle cx="60.33" cy="64" r="47.5" fill="#9e9e9e"/><linearGradient id="c" gradientUnits="userSpaceOnUse" x1="60.546" x2="60.546" y1="33.893" y2="111.846"><stop offset=".321" stop-color="#eceff1"/><stop offset="1" stop-color="#b0bec5"/></linearGradient><circle cx="60.55" cy="64" r="40.5" fill="url(#c)"/><path d="M60.33 34c-1.66 0-3 1.34-3 3v24c0 1.66 1.34 3 3 3s3-1.34 3-3V37c0-1.66-1.35-3-3-3z" fill="#424242"/><path d="M60.23 63.99c0 1.66 1.34 3 3 3h15.89c1.66 0 3-1.34 3-3s-1.34-3-3-3H63.23c-1.65 0-3 1.34-3 3z" fill="#424242"/><circle cx="60.33" cy="64" r="5.25" fill="#424242"/><circle cx="60.33" cy="64" r="2.25" fill="#cfd8dc"/><circle cx="60.24" cy="29.04" r="3" fill="#757575"/><circle cx="60.24" cy="99.15" r="3" fill="#757575"/><circle cx="95.3" cy="64.09" r="3" fill="#757575"/><circle cx="26.3" cy="64.09" r="3" fill="#757575"/><path d="M60.55 25.5c21.23 0 38.5 17.27 38.5 38.5s-17.27 38.5-38.5 38.5-38.5-17.27-38.5-38.5 17.27-38.5 38.5-38.5m0-2c-22.37 0-40.5 18.13-40.5 40.5s18.13 40.5 40.5 40.5 40.5-18.13 40.5-40.5-18.14-40.5-40.5-40.5z" fill="#424242" opacity=".2"/><path d="M60.33 19.5c24.54 0 44.5 19.96 44.5 44.5s-19.96 44.5-44.5 44.5-44.5-19.96-44.5-44.5 19.96-44.5 44.5-44.5m0-3c-26.23 0-47.5 21.27-47.5 47.5s21.27 47.5 47.5 47.5 47.5-21.27 47.5-47.5-21.27-47.5-47.5-47.5z" fill="#424242" opacity=".2"/></svg>

<svg width="128" height="128" style="enable-background:new 0 0 128 128;" xmlns="http://www.w3.org/2000/svg" xmlns:xlink="http://www.w3.org/1999/xlink">
  <g id="图层_3">
    <rect height="0.67" style="fill:#F2F2F2;" width="0" x="-528" y="-56.67"/>
    <circle cx="28.87" cy="64.09" r="3" style="fill:#757575;"/>
    <g>
      <path d="M110.73,72h-7.11c-2.46,0-4.45-1.99-4.45-4.45v-7.44c0-2.46,1.99-4.45,4.45-4.45h7.11 c2.46,0,4.45,1.99,4.45,4.45v7.44C115.17,70.01,113.18,72,110.73,72z" style="fill:#616161;"/>
      <g style="opacity:0.2;">
        <path d="M110.73,57.67c1.35,0,2.45,1.1,2.45,2.45v7.44c0,1.35-1.1,2.45-2.45,2.45h-7.11 c-1.35,0-2.45-1.1-2.45-2.45v-7.44c0-1.35,1.1-2.45,2.45-2.45H110.73 M110.73,55.67h-7.11c-2.46,0-4.45,1.99-4.45,4.45v7.44 c0,2.46,1.99,4.45,4.45,4.45h7.11c2.46,0,4.45-1.99,4.45-4.45v-7.44C115.17,57.66,113.18,55.67,110.73,55.67L110.73,55.67z" style="fill:#424242;"/>
      </g>
      <linearGradient id="SVGID_1_" gradientUnits="userSpaceOnUse" x1="60.4564" x2="60.4564" y1="1.6667" y2="21.6778">
        <stop offset="0" style="stop-color:#A1887F"/>
        <stop offset="1" style="stop-color:#795548"/>
      </linearGradient>
      <polygon points="78.43,3.97 42.32,3.97 36.46,32.06 84.45,32.06 " style="fill:url(#SVGID_1_);"/>
      <linearGradient id="SVGID_3_" gradientUnits="userSpaceOnUse" x1="60.4564" x2="60.4564" y1="136.3333" y2="108.9817">
        <stop offset="0" style="stop-color:#A1887F"/>
        <stop offset="1" style="stop-color:#795548"/>
      </linearGradient>
      <polygon points="42.48,123.82 78.6,123.82 84.45,95.73 36.46,95.73 " style="fill:url(#SVGID_3_);"/>
      <g style="opacity:0.2;">
        <path d="M76.01,6.97l4.73,22.09H40.15l4.6-22.09H76.01 M78.43,3.97H42.32l-5.85,28.09h47.98L78.43,3.97 L78.43,3.97z" style="fill:#424242;"/>
      </g>
      <g style="opacity:0.2;">
        <path d="M80.76,98.73l-4.6,22.09H44.91l-4.73-22.09H80.76 M84.45,95.73L84.45,95.73L84.45,95.73z M84.45,95.73H36.46l6.02,28.09H78.6L84.45,95.73L84.45,95.73z" style="fill:#424242;"/>
      </g>
      <circle cx="60.33" cy="64" r="47.5" style="fill:#9E9E9E;"/>
      <linearGradient id="SVGID_4_" gradientUnits="userSpaceOnUse" x1="60.5457" x2="60.5457" y1="33.8933" y2="111.8456">
        <stop offset="0.3212" style="stop-color:#ECEFF1"/>
        <stop offset="1" style="stop-color:#B0BEC5"/>
      </linearGradient>
      <circle cx="60.55" cy="64" r="40.5" style="fill:url(#SVGID_4_);"/>
      <path d="M60.33,34L60.33,34c-1.66,0-3,1.34-3,3l0,24c0,1.66,1.34,3,3,3h0c1.66,0,3-1.34,3-3l0-24 C63.33,35.34,61.98,34,60.33,34z" style="fill:#424242;"/>
      <path d="M60.23,63.99L60.23,63.99c0,1.66,1.34,3,3,3h15.89c1.66,0,3-1.34,3-3v0c0-1.66-1.34-3-3-3H63.23 C61.58,60.99,60.23,62.33,60.23,63.99z" style="fill:#424242;"/>
      <circle cx="60.33" cy="64" r="5.25" style="fill:#424242;"/>
      <circle cx="60.33" cy="64" r="2.25" style="fill:#CFD8DC;"/>
      <circle cx="60.24" cy="29.04" r="3" style="fill:#757575;"/>
      <circle cx="60.24" cy="99.15" r="3" style="fill:#757575;"/>
      <circle cx="95.3" cy="64.09" r="3" style="fill:#757575;"/>
      <circle cx="26.3" cy="64.09" r="3" style="fill:#757575;"/>
      <g style="opacity:0.2;">
        <path d="M60.55,25.5c21.23,0,38.5,17.27,38.5,38.5s-17.27,38.5-38.5,38.5S22.05,85.23,22.05,64 S39.32,25.5,60.55,25.5 M60.55,23.5c-22.37,0-40.5,18.13-40.5,40.5s18.13,40.5,40.5,40.5c22.37,0,40.5-18.13,40.5-40.5 S82.91,23.5,60.55,23.5L60.55,23.5z" style="fill:#424242;"/>
      </g>
      <g style="opacity:0.2;">
        <path d="M60.33,19.5c24.54,0,44.5,19.96,44.5,44.5s-19.96,44.5-44.5,44.5S15.83,88.54,15.83,64 S35.79,19.5,60.33,19.5 M60.33,16.5c-26.23,0-47.5,21.27-47.5,47.5s21.27,47.5,47.5,47.5s47.5-21.27,47.5-47.5 S86.56,16.5,60.33,16.5L60.33,16.5z" style="fill:#424242;"/>
      </g>
    </g>
  </g>
  <g id="Layer_2_x5F_复制" style="display:none;">
    <g style="display:inline;opacity:0.3;">
      <g style="opacity:0.6;">
        <circle cx="64" cy="64" r="28" style="opacity:0.61;fill:none;stroke:#000000;stroke-width:0.2625;stroke-miterlimit:10;"/>
        <line style="opacity:0.61;fill:none;stroke:#000000;stroke-width:0.25;stroke-miterlimit:10;" x1="84" x2="84" y1="0" y2="128"/>
        <line style="opacity:0.61;fill:none;stroke:#000000;stroke-width:0.25;stroke-miterlimit:10;" x1="44" x2="44" y1="0" y2="128"/>
        <line style="opacity:0.61;fill:none;stroke:#000000;stroke-width:0.25;stroke-miterlimit:10;" x1="64" x2="64" y1="0" y2="128"/>
        <line style="opacity:0.61;fill:none;stroke:#000000;stroke-width:0.25;stroke-miterlimit:10;" x1="128" x2="0" y1="64" y2="64"/>
        <line style="opacity:0.61;fill:none;stroke:#000000;stroke-width:0.25;stroke-miterlimit:10;" x1="128" x2="0" y1="44" y2="44"/>
        <line style="opacity:0.61;fill:none;stroke:#000000;stroke-width:0.25;stroke-miterlimit:10;" x1="128" x2="0" y1="83.75" y2="83.75"/>
        <line style="opacity:0.61;fill:none;stroke:#000000;stroke-width:0.25;stroke-miterlimit:10;" x1="128" x2="0" y1="128" y2="0"/>
        <line style="opacity:0.61;fill:none;stroke:#000000;stroke-width:0.25;stroke-miterlimit:10;" x1="0" x2="128" y1="128" y2="0"/>
        <g style="opacity:0.61;">
          <path d="M64,4.26c32.94,0,59.74,26.8,59.74,59.74S96.94,123.74,64,123.74S4.26,96.94,4.26,64S31.06,4.26,64,4.26 M64,4 C30.86,4,4,30.86,4,64c0,33.14,26.86,60,60,60c33.14,0,60-26.86,60-60C124,30.86,97.14,4,64,4L64,4z"/>
        </g>
        <path d="M107.97,115.97H20.03 c-4.42,0-8.03-3.61-8.03-8.03V20.03c0-4.42,3.61-8.03,8.03-8.03h87.94c4.42,0,8.03,3.61,8.03,8.03v87.91 C116,112.36,112.39,115.97,107.97,115.97z" style="opacity:0.61;fill:none;stroke:#000000;stroke-width:0.2578;stroke-miterlimit:10;"/>
        <path d="M99.75,124H28 c-4.4,0-8-3.6-8-8V12c0-4.4,3.6-8,8-8h71.75c4.4,0,8,3.6,8,8v104C107.75,120.4,104.15,124,99.75,124z" style="opacity:0.61;fill:none;stroke:#000000;stroke-width:0.2567;stroke-miterlimit:10;"/>
        <path d="M113.77,108H14.23 C8.6,108,4,103.4,4,97.77V30.28c0-5.63,4.6-10.23,10.23-10.23h99.54c5.63,0,10.23,4.6,10.23,10.23v67.48 C124,103.4,119.4,108,113.77,108z" style="opacity:0.61;fill:none;stroke:#000000;stroke-width:0.2627;stroke-miterlimit:10;"/>
      </g>
      <g>
        <g style="opacity:0.2;">
          <defs>
            <rect id="SVGID_2_" height="128" style="opacity:0.2;" width="128"/>
          </defs>
          <clipPath id="SVGID_5_">
            <use style="overflow:visible;" xlink:href="#SVGID_2_"/>
          </clipPath>
          <g style="clip-path:url(#SVGID_5_);">
            <g>
              <line style="fill:none;stroke:#000000;stroke-width:0.25;stroke-miterlimit:10;" x1="-28" x2="-28" y1="160" y2="-32"/>
              <line style="fill:none;stroke:#000000;stroke-width:0.25;stroke-miterlimit:10;" x1="-24" x2="-24" y1="160" y2="-32"/>
              <line style="fill:none;stroke:#000000;stroke-width:0.25;stroke-miterlimit:10;" x1="-20" x2="-20" y1="160" y2="-32"/>
              <line style="fill:none;stroke:#000000;stroke-width:0.25;stroke-miterlimit:10;" x1="-16" x2="-16" y1="160" y2="-32"/>
              <line style="fill:none;stroke:#000000;stroke-width:0.25;stroke-miterlimit:10;" x1="-12" x2="-12" y1="160" y2="-32"/>
              <line style="fill:none;stroke:#000000;stroke-width:0.25;stroke-miterlimit:10;" x1="-8" x2="-8" y1="160" y2="-32"/>
              <line style="fill:none;stroke:#000000;stroke-width:0.25;stroke-miterlimit:10;" x1="-4" x2="-4" y1="160" y2="-32"/>
              <line style="fill:none;stroke:#000000;stroke-width:0.25;stroke-miterlimit:10;" x1="0" x2="0" y1="160" y2="-32"/>
              <line style="fill:none;stroke:#000000;stroke-width:0.25;stroke-miterlimit:10;" x1="4" x2="4" y1="160" y2="-32"/>
              <line style="fill:none;stroke:#000000;stroke-width:0.25;stroke-miterlimit:10;" x1="8" x2="8" y1="160" y2="-32"/>
              <line style="fill:none;stroke:#000000;stroke-width:0.25;stroke-miterlimit:10;" x1="12" x2="12" y1="160" y2="-32"/>
              <line style="fill:none;stroke:#000000;stroke-width:0.25;stroke-miterlimit:10;" x1="16" x2="16" y1="160" y2="-32"/>
              <line style="fill:none;stroke:#000000;stroke-width:0.25;stroke-miterlimit:10;" x1="20" x2="20" y1="160" y2="-32"/>
              <line style="fill:none;stroke:#000000;stroke-width:0.25;stroke-miterlimit:10;" x1="24" x2="24" y1="160" y2="-32"/>
              <line style="fill:none;stroke:#000000;stroke-width:0.25;stroke-miterlimit:10;" x1="28" x2="28" y1="160" y2="-32"/>
              <line style="fill:none;stroke:#000000;stroke-width:0.25;stroke-miterlimit:10;" x1="32" x2="32" y1="160" y2="-32"/>
              <line style="fill:none;stroke:#000000;stroke-width:0.25;stroke-miterlimit:10;" x1="36" x2="36" y1="160" y2="-32"/>
              <line style="fill:none;stroke:#000000;stroke-width:0.25;stroke-miterlimit:10;" x1="40" x2="40" y1="160" y2="-32"/>
              <line style="fill:none;stroke:#000000;stroke-width:0.25;stroke-miterlimit:10;" x1="44" x2="44" y1="160" y2="-32"/>
              <line style="fill:none;stroke:#000000;stroke-width:0.25;stroke-miterlimit:10;" x1="48" x2="48" y1="160" y2="-32"/>
              <line style="fill:none;stroke:#000000;stroke-width:0.25;stroke-miterlimit:10;" x1="52" x2="52" y1="160" y2="-32"/>
              <line style="fill:none;stroke:#000000;stroke-width:0.25;stroke-miterlimit:10;" x1="56" x2="56" y1="160" y2="-32"/>
              <line style="fill:none;stroke:#000000;stroke-width:0.25;stroke-miterlimit:10;" x1="60" x2="60" y1="160" y2="-32"/>
              <line style="fill:none;stroke:#000000;stroke-width:0.25;stroke-miterlimit:10;" x1="64" x2="64" y1="160" y2="-32"/>
              <line style="fill:none;stroke:#000000;stroke-width:0.25;stroke-miterlimit:10;" x1="68" x2="68" y1="160" y2="-32"/>
              <line style="fill:none;stroke:#000000;stroke-width:0.25;stroke-miterlimit:10;" x1="72" x2="72" y1="160" y2="-32"/>
              <line style="fill:none;stroke:#000000;stroke-width:0.25;stroke-miterlimit:10;" x1="76" x2="76" y1="160" y2="-32"/>
              <line style="fill:none;stroke:#000000;stroke-width:0.25;stroke-miterlimit:10;" x1="80" x2="80" y1="160" y2="-32"/>
              <line style="fill:none;stroke:#000000;stroke-width:0.25;stroke-miterlimit:10;" x1="84" x2="84" y1="160" y2="-32"/>
              <line style="fill:none;stroke:#000000;stroke-width:0.25;stroke-miterlimit:10;" x1="88" x2="88" y1="160" y2="-32"/>
              <line style="fill:none;stroke:#000000;stroke-width:0.25;stroke-miterlimit:10;" x1="92" x2="92" y1="160" y2="-32"/>
              <line style="fill:none;stroke:#000000;stroke-width:0.25;stroke-miterlimit:10;" x1="96" x2="96" y1="160" y2="-32"/>
              <line style="fill:none;stroke:#000000;stroke-width:0.25;stroke-miterlimit:10;" x1="100" x2="100" y1="160" y2="-32"/>
              <line style="fill:none;stroke:#000000;stroke-width:0.25;stroke-miterlimit:10;" x1="104" x2="104" y1="160" y2="-32"/>
              <line style="fill:none;stroke:#000000;stroke-width:0.25;stroke-miterlimit:10;" x1="108" x2="108" y1="160" y2="-32"/>
              <line style="fill:none;stroke:#000000;stroke-width:0.25;stroke-miterlimit:10;" x1="112" x2="112" y1="160" y2="-32"/>
              <line style="fill:none;stroke:#000000;stroke-width:0.25;stroke-miterlimit:10;" x1="116" x2="116" y1="160" y2="-32"/>
              <line style="fill:none;stroke:#000000;stroke-width:0.25;stroke-miterlimit:10;" x1="120" x2="120" y1="160" y2="-32"/>
              <line style="fill:none;stroke:#000000;stroke-width:0.25;stroke-miterlimit:10;" x1="124" x2="124" y1="160" y2="-32"/>
              <line style="fill:none;stroke:#000000;stroke-width:0.25;stroke-miterlimit:10;" x1="128" x2="128" y1="160" y2="-32"/>
              <line style="fill:none;stroke:#000000;stroke-width:0.25;stroke-miterlimit:10;" x1="132" x2="132" y1="160" y2="-32"/>
              <line style="fill:none;stroke:#000000;stroke-width:0.25;stroke-miterlimit:10;" x1="136" x2="136" y1="160" y2="-32"/>
              <line style="fill:none;stroke:#000000;stroke-width:0.25;stroke-miterlimit:10;" x1="137" x2="137" y1="166.05" y2="-25.95"/>
              <line style="fill:none;stroke:#000000;stroke-width:0.25;stroke-miterlimit:10;" x1="144" x2="144" y1="160" y2="-32"/>
              <line style="fill:none;stroke:#000000;stroke-width:0.25;stroke-miterlimit:10;" x1="148" x2="148" y1="160" y2="-32"/>
              <line style="fill:none;stroke:#000000;stroke-width:0.25;stroke-miterlimit:10;" x1="152" x2="152" y1="160" y2="-32"/>
              <line style="fill:none;stroke:#000000;stroke-width:0.25;stroke-miterlimit:10;" x1="156" x2="156" y1="160" y2="-32"/>
            </g>
            <g>
              <line style="fill:none;stroke:#000000;stroke-width:0.25;stroke-miterlimit:10;" x1="-32" x2="160" y1="-28" y2="-28"/>
              <line style="fill:none;stroke:#000000;stroke-width:0.25;stroke-miterlimit:10;" x1="-32" x2="160" y1="-24" y2="-24"/>
              <line style="fill:none;stroke:#000000;stroke-width:0.25;stroke-miterlimit:10;" x1="-32" x2="160" y1="-20" y2="-20"/>
              <line style="fill:none;stroke:#000000;stroke-width:0.25;stroke-miterlimit:10;" x1="-32" x2="160" y1="-16" y2="-16"/>
              <line style="fill:none;stroke:#000000;stroke-width:0.25;stroke-miterlimit:10;" x1="-32" x2="160" y1="-12" y2="-12"/>
              <line style="fill:none;stroke:#000000;stroke-width:0.25;stroke-miterlimit:10;" x1="-32" x2="160" y1="-8" y2="-8"/>
              <line style="fill:none;stroke:#000000;stroke-width:0.25;stroke-miterlimit:10;" x1="-32" x2="160" y1="-4" y2="-4"/>
              <line style="fill:none;stroke:#000000;stroke-width:0.25;stroke-miterlimit:10;" x1="-32" x2="160" y1="0" y2="0"/>
              <line style="fill:none;stroke:#000000;stroke-width:0.25;stroke-miterlimit:10;" x1="-32" x2="160" y1="4" y2="4"/>
              <line style="fill:none;stroke:#000000;stroke-width:0.25;stroke-miterlimit:10;" x1="-32" x2="160" y1="8" y2="8"/>
              <line style="fill:none;stroke:#000000;stroke-width:0.25;stroke-miterlimit:10;" x1="-32" x2="160" y1="12" y2="12"/>
              <line style="fill:none;stroke:#000000;stroke-width:0.25;stroke-miterlimit:10;" x1="-32" x2="160" y1="16" y2="16"/>
              <line style="fill:none;stroke:#000000;stroke-width:0.25;stroke-miterlimit:10;" x1="-32" x2="160" y1="20" y2="20"/>
              <line style="fill:none;stroke:#000000;stroke-width:0.25;stroke-miterlimit:10;" x1="-32" x2="160" y1="24" y2="24"/>
              <line style="fill:none;stroke:#000000;stroke-width:0.25;stroke-miterlimit:10;" x1="-32" x2="160" y1="28" y2="28"/>
              <line style="fill:none;stroke:#000000;stroke-width:0.25;stroke-miterlimit:10;" x1="-32" x2="160" y1="32" y2="32"/>
              <line style="fill:none;stroke:#000000;stroke-width:0.25;stroke-miterlimit:10;" x1="-32" x2="160" y1="36" y2="36"/>
              <line style="fill:none;stroke:#000000;stroke-width:0.25;stroke-miterlimit:10;" x1="-32" x2="160" y1="40" y2="40"/>
              <line style="fill:none;stroke:#000000;stroke-width:0.25;stroke-miterlimit:10;" x1="-32" x2="160" y1="44" y2="44"/>
              <line style="fill:none;stroke:#000000;stroke-width:0.25;stroke-miterlimit:10;" x1="-32" x2="160" y1="48" y2="48"/>
              <line style="fill:none;stroke:#000000;stroke-width:0.25;stroke-miterlimit:10;" x1="-32" x2="160" y1="52" y2="52"/>
              <line style="fill:none;stroke:#000000;stroke-width:0.25;stroke-miterlimit:10;" x1="-32" x2="160" y1="56" y2="56"/>
              <line style="fill:none;stroke:#000000;stroke-width:0.25;stroke-miterlimit:10;" x1="-32" x2="160" y1="60" y2="60"/>
              <line style="fill:none;stroke:#000000;stroke-width:0.25;stroke-miterlimit:10;" x1="-32" x2="160" y1="64" y2="64"/>
              <line style="fill:none;stroke:#000000;stroke-width:0.25;stroke-miterlimit:10;" x1="-32" x2="160" y1="68" y2="68"/>
              <line style="fill:none;stroke:#000000;stroke-width:0.25;stroke-miterlimit:10;" x1="-32" x2="160" y1="72" y2="72"/>
              <line style="fill:none;stroke:#000000;stroke-width:0.25;stroke-miterlimit:10;" x1="-32" x2="160" y1="76" y2="76"/>
              <line style="fill:none;stroke:#000000;stroke-width:0.25;stroke-miterlimit:10;" x1="-32" x2="160" y1="80" y2="80"/>
              <line style="fill:none;stroke:#000000;stroke-width:0.25;stroke-miterlimit:10;" x1="-32" x2="160" y1="84" y2="84"/>
              <line style="fill:none;stroke:#000000;stroke-width:0.25;stroke-miterlimit:10;" x1="-32" x2="160" y1="88" y2="88"/>
              <line style="fill:none;stroke:#000000;stroke-width:0.25;stroke-miterlimit:10;" x1="-32" x2="160" y1="92" y2="92"/>
              <line style="fill:none;stroke:#000000;stroke-width:0.25;stroke-miterlimit:10;" x1="-32" x2="160" y1="96" y2="96"/>
              <line style="fill:none;stroke:#000000;stroke-width:0.25;stroke-miterlimit:10;" x1="-32" x2="160" y1="100" y2="100"/>
              <line style="fill:none;stroke:#000000;stroke-width:0.25;stroke-miterlimit:10;" x1="-32" x2="160" y1="104" y2="104"/>
              <line style="fill:none;stroke:#000000;stroke-width:0.25;stroke-miterlimit:10;" x1="-32" x2="160" y1="108" y2="108"/>
              <line style="fill:none;stroke:#000000;stroke-width:0.25;stroke-miterlimit:10;" x1="-32" x2="160" y1="112" y2="112"/>
              <line style="fill:none;stroke:#000000;stroke-width:0.25;stroke-miterlimit:10;" x1="-32" x2="160" y1="116" y2="116"/>
              <line style="fill:none;stroke:#000000;stroke-width:0.25;stroke-miterlimit:10;" x1="-32" x2="160" y1="120" y2="120"/>
              <line style="fill:none;stroke:#000000;stroke-width:0.25;stroke-miterlimit:10;" x1="-32" x2="160" y1="124" y2="124"/>
              <line style="fill:none;stroke:#000000;stroke-width:0.25;stroke-miterlimit:10;" x1="-32" x2="160" y1="128" y2="128"/>
              <line style="fill:none;stroke:#000000;stroke-width:0.25;stroke-miterlimit:10;" x1="-32" x2="160" y1="132" y2="132"/>
              <line style="fill:none;stroke:#000000;stroke-width:0.25;stroke-miterlimit:10;" x1="-32" x2="160" y1="136" y2="136"/>
              <line style="fill:none;stroke:#000000;stroke-width:0.25;stroke-miterlimit:10;" x1="-32" x2="160" y1="140" y2="140"/>
              <line style="fill:none;stroke:#000000;stroke-width:0.25;stroke-miterlimit:10;" x1="-32" x2="160" y1="144" y2="144"/>
              <line style="fill:none;stroke:#000000;stroke-width:0.25;stroke-miterlimit:10;" x1="-32" x2="160" y1="148" y2="148"/>
              <line style="fill:none;stroke:#000000;stroke-width:0.25;stroke-miterlimit:10;" x1="-32" x2="160" y1="152" y2="152"/>
              <line style="fill:none;stroke:#000000;stroke-width:0.25;stroke-miterlimit:10;" x1="-32" x2="160" y1="156" y2="156"/>
            </g>
            <path d="M159.75-31.75v191.5h-191.5v-191.5H159.75 M160-32H-32v192h192V-32L160-32z"/>
          </g>
        </g>
        <g>
          <rect height="128" style="opacity:0.3;fill:#F44336;" width="4"/>
          <rect height="128" style="opacity:0.3;fill:#F44336;" width="4" x="124"/>
          <rect height="120" style="opacity:0.3;fill:#F44336;" transform="matrix(-1.836970e-16 1 -1 -1.836970e-16 66 -62)" width="4" x="62" y="-58"/>
          <rect height="120" style="opacity:0.3;fill:#F44336;" transform="matrix(-1.836970e-16 1 -1 -1.836970e-16 190 62)" width="4" x="62" y="66"/>
        </g>
      </g>
    </g>
  </g>
</svg>
